!! 00003] TT[TB
!! NN
!!!OTL: Zanmen de ling xiu Mao Zedong
!!!ARE: Asia, China, Shanxi Nordwesten
!! Ethnic Group: Han
!! I, 50
!!!SCT: C0003
!!!YEM: Copyright 1995, estate of Helmut Schaffrath.
**kern
*ICvox
*Ivox
*M2/4
*k[b-]
*F:
{4cc
4cc
=1
8ff
4cc
8b-
=2
8g
8cc
8e-
8f
=3
2g}
=4
{4cc
4cc
=5
8ff
4cc
8b-
=6
8g
8cc
8e-
8f
=7
2g}
=8
{8ff
8dd
8.ff
16dd
=9
8cc
8ff
8dd
8ff
=10
4cc
8b-
8g
=11
2cc}
=12
{8g
16g
16g
8g
8cc
=13
8g
8f
8e-
8d
=14
2c}
=15
{8f
4e-
8f
=16
2g
=17
2cc}
=18
{4g
8a
8g
=19
4.f
8a
=20
8g
8f
8e-
8d
=21
2c}
==
!!!AGN: Xiaodiao. Geming lishi minge
!! neues Volkslied. Hauefig waehrend der Kulturrevolution gesungen.
!!    Cut 11b soll eine Variante davon sein. +++ Noch zuzuordnen!!! +++
!!!ONB: ESAC (Essen Associative Code) Database: CHINA
!!!AMT: simple duple
!!!AIN: vox
!!!EED: Helmut Schaffrath
!!!EEV: 1.0
*-
